svg/color/gpo.svg

<?xml version="1.0" encoding="UTF-8" ?>
<!DOCTYPE svg PUBLIC "-//W3C//DTD SVG 1.1//EN" "http://www.w3.org/Graphics/SVG/1.1/DTD/svg11.dtd">
<svg width="250pt" height="248pt" viewBox="0 0 250 248" version="1.1" xmlns="http://www.w3.org/2000/svg">
<g id="#ffffffff">
<path fill="#ffffff" opacity="1.00" d=" M 0.00 0.00 L 250.00 0.00 L 250.00 248.00 L 118.54 248.00 C 118.63 245.73 118.72 243.46 118.83 241.20 C 123.07 241.49 127.35 241.47 131.59 241.15 C 131.58 243.25 131.59 245.35 131.60 247.46 C 161.66 245.95 190.97 232.51 211.95 210.96 C 232.73 190.17 245.75 161.53 247.09 132.12 C 245.53 131.66 243.97 131.25 242.42 130.83 C 242.40 126.57 242.55 122.27 241.74 118.06 C 243.65 118.23 245.56 118.36 247.48 118.49 C 246.60 106.59 244.84 94.64 240.72 83.38 C 230.72 54.81 209.94 30.15 183.31 15.70 C 170.34 8.67 156.13 4.01 141.57 1.71 C 138.23 1.24 134.84 1.25 131.46 1.19 C 131.41 2.91 131.32 4.63 131.21 6.34 C 127.10 6.23 122.99 6.21 118.87 6.32 C 118.75 4.60 118.66 2.87 118.60 1.15 C 101.30 0.89 84.33 6.29 68.95 13.88 C 37.23 29.43 13.26 59.54 4.78 93.78 C 2.83 101.85 1.12 110.11 1.46 118.47 C 3.49 118.42 5.51 118.38 7.54 118.31 C 7.34 122.59 7.36 126.89 7.64 131.17 C 5.52 131.26 3.40 131.33 1.28 131.39 C 1.27 141.05 3.76 150.48 6.24 159.76 C 14.42 187.01 32.17 211.36 55.99 227.01 C 68.36 235.19 82.13 241.48 96.68 244.52 C 102.07 245.75 107.69 246.01 112.90 248.00 L 0.00 248.00 L 0.00 0.00 Z" />
</g>
<g id="#f0ce0eff">
<path fill="#f0ce0e" opacity="1.00" d=" M 68.95 13.88 C 84.33 6.29 101.30 0.89 118.60 1.15 C 118.66 2.87 118.75 4.60 118.87 6.32 C 100.64 7.49 82.52 12.52 66.65 21.66 C 42.01 35.72 22.63 59.00 13.73 85.98 C 9.72 96.29 8.54 107.37 7.54 118.31 C 5.51 118.38 3.49 118.42 1.46 118.47 C 1.12 110.11 2.83 101.85 4.78 93.78 C 13.26 59.54 37.23 29.43 68.95 13.88 Z" />
<path fill="#f0ce0e" opacity="1.00" d=" M 131.46 1.19 C 134.84 1.25 138.23 1.24 141.57 1.71 C 156.13 4.01 170.34 8.67 183.31 15.70 C 209.94 30.15 230.72 54.81 240.72 83.38 C 244.84 94.64 246.60 106.59 247.48 118.49 C 245.56 118.36 243.65 118.23 241.74 118.06 C 241.26 98.14 234.70 78.60 224.33 61.67 C 204.64 29.65 168.81 8.18 131.21 6.34 C 131.32 4.63 131.41 2.91 131.46 1.19 Z" />
<path fill="#f0ce0e" opacity="1.00" d=" M 99.13 12.74 C 105.56 11.14 112.13 10.07 118.77 10.14 C 118.69 12.53 118.63 14.92 118.48 17.30 C 93.45 17.92 69.19 29.02 51.00 46.00 C 36.05 59.73 25.77 78.08 20.51 97.60 C 18.63 104.41 18.23 111.48 17.27 118.45 C 15.25 118.50 13.24 118.58 11.22 118.66 C 11.78 100.90 16.89 83.31 25.64 67.86 C 32.06 55.81 41.32 45.52 51.54 36.56 C 65.14 24.89 81.64 16.62 99.13 12.74 Z" />
<path fill="#f0ce0e" opacity="1.00" d=" M 131.31 10.16 C 142.35 10.25 153.13 13.14 163.58 16.49 C 188.75 25.70 210.49 44.05 223.66 67.42 C 232.62 82.87 237.31 100.57 238.44 118.34 C 236.19 118.44 233.95 118.53 231.71 118.63 C 230.29 113.94 230.65 108.98 229.49 104.25 C 224.32 75.34 206.24 49.24 181.54 33.52 C 166.52 24.24 149.30 18.06 131.57 17.28 C 131.47 14.91 131.39 12.53 131.31 10.16 Z" />
<path fill="#f0ce0e" opacity="1.00" d=" M 76.40 89.41 C 84.49 82.46 95.71 80.99 106.01 81.30 C 128.53 81.40 151.06 81.12 173.58 81.45 C 175.51 84.87 173.80 88.65 172.77 92.07 C 171.78 95.45 168.91 98.89 165.05 98.53 C 134.42 98.53 103.80 98.49 73.17 98.55 C 70.92 95.15 73.86 91.59 76.40 89.41 Z" />
<path fill="#f0ce0e" opacity="1.00" d=" M 241.26 137.03 C 241.76 130.72 241.62 124.38 241.74 118.06 C 242.55 122.27 242.40 126.57 242.42 130.83 C 243.97 131.25 245.53 131.66 247.09 132.12 C 245.75 161.53 232.73 190.17 211.95 210.96 C 190.97 232.51 161.66 245.95 131.60 247.46 C 131.59 245.35 131.58 243.25 131.59 241.15 C 158.84 239.52 185.44 228.09 205.15 209.16 C 225.27 190.44 238.18 164.30 241.26 137.03 Z" />
<path fill="#f0ce0e" opacity="1.00" d=" M 69.31 119.12 C 73.20 117.50 77.84 118.57 82.03 118.33 C 84.46 117.98 87.36 119.55 87.43 122.20 C 87.68 129.14 86.94 136.19 88.58 143.03 C 89.44 148.45 94.35 152.49 99.64 153.23 C 105.72 154.11 111.88 153.69 118.00 153.79 C 129.27 153.65 140.55 154.09 151.80 153.51 C 154.97 153.47 158.25 151.65 159.29 148.53 C 160.20 145.10 160.39 141.50 160.25 137.96 C 160.38 135.26 157.52 133.41 155.05 133.53 C 148.77 133.31 142.48 133.71 136.20 133.45 C 134.37 133.53 132.73 131.76 133.10 129.93 C 133.40 126.57 134.20 122.97 136.45 120.35 C 138.64 117.96 142.08 118.34 145.00 118.29 C 155.34 118.43 165.69 118.16 176.03 118.41 C 179.00 118.19 180.65 121.35 180.44 123.96 C 180.43 130.96 180.61 137.98 180.27 144.97 C 179.91 152.72 177.37 161.08 170.94 165.94 C 165.45 169.78 158.67 171.75 151.98 171.63 C 135.32 171.69 118.67 171.64 102.01 171.66 C 94.06 171.80 85.85 170.16 79.07 165.87 C 72.24 161.31 69.36 153.05 67.89 145.33 C 67.11 138.91 67.53 132.41 67.38 125.96 C 67.53 123.61 66.89 120.55 69.31 119.12 Z" />
<path fill="#f0ce0e" opacity="1.00" d=" M 1.28 131.39 C 3.40 131.33 5.52 131.26 7.64 131.17 C 9.17 151.39 15.54 171.28 26.76 188.22 C 40.76 209.70 62.04 226.41 86.30 234.76 C 96.76 238.53 107.81 240.15 118.83 241.20 C 118.72 243.46 118.63 245.73 118.54 248.00 L 112.90 248.00 C 107.69 246.01 102.07 245.75 96.68 244.52 C 82.13 241.48 68.36 235.19 55.99 227.01 C 32.17 211.36 14.42 187.01 6.24 159.76 C 3.76 150.48 1.27 141.05 1.28 131.39 Z" />
<path fill="#f0ce0e" opacity="1.00" d=" M 11.25 131.29 C 13.31 131.32 15.36 131.35 17.42 131.36 C 18.67 143.50 20.86 155.73 26.07 166.86 C 33.31 183.35 44.60 198.09 58.93 209.04 C 75.91 222.43 97.12 230.21 118.68 231.39 C 118.66 233.48 118.64 235.57 118.63 237.66 C 102.29 236.50 86.00 232.39 71.60 224.45 C 37.20 206.68 13.22 170.02 11.25 131.29 Z" />
<path fill="#f0ce0e" opacity="1.00" d=" M 231.12 131.36 C 233.35 131.34 235.60 131.32 237.84 131.31 C 236.46 173.86 207.21 213.42 167.93 229.14 C 156.39 234.09 143.93 236.64 131.45 237.67 C 131.43 235.54 131.41 233.41 131.38 231.28 C 164.19 229.18 195.52 210.99 213.50 183.45 C 221.37 171.45 226.98 157.89 229.55 143.76 C 230.38 139.66 230.38 135.46 231.12 131.36 Z" />
</g>
<g id="#24262eff">
<path fill="#24262e" opacity="1.00" d=" M 66.65 21.66 C 82.52 12.52 100.64 7.49 118.87 6.32 C 122.99 6.21 127.10 6.23 131.21 6.34 C 168.81 8.18 204.64 29.65 224.33 61.67 C 234.70 78.60 241.26 98.14 241.74 118.06 C 241.62 124.38 241.76 130.72 241.26 137.03 C 238.18 164.30 225.27 190.44 205.15 209.16 C 185.44 228.09 158.84 239.52 131.59 241.15 C 127.35 241.47 123.07 241.49 118.83 241.20 C 107.81 240.15 96.76 238.53 86.30 234.76 C 62.04 226.41 40.76 209.70 26.76 188.22 C 15.54 171.28 9.17 151.39 7.64 131.17 C 7.36 126.89 7.34 122.59 7.54 118.31 C 8.54 107.37 9.72 96.29 13.73 85.98 C 22.63 59.00 42.01 35.72 66.65 21.66 M 99.13 12.74 C 81.64 16.62 65.14 24.89 51.54 36.56 C 41.32 45.52 32.06 55.81 25.64 67.86 C 16.89 83.31 11.78 100.90 11.22 118.66 C 13.24 118.58 15.25 118.50 17.27 118.45 C 18.23 111.48 18.63 104.41 20.51 97.60 C 25.77 78.08 36.05 59.73 51.00 46.00 C 69.19 29.02 93.45 17.92 118.48 17.30 C 118.63 14.92 118.69 12.53 118.77 10.14 C 112.13 10.07 105.56 11.14 99.13 12.74 M 131.31 10.16 C 131.39 12.53 131.47 14.91 131.57 17.28 C 149.30 18.06 166.52 24.24 181.54 33.52 C 206.24 49.24 224.32 75.34 229.49 104.25 C 230.65 108.98 230.29 113.94 231.71 118.63 C 233.95 118.53 236.19 118.44 238.44 118.34 C 237.31 100.57 232.62 82.87 223.66 67.42 C 210.49 44.05 188.75 25.70 163.58 16.49 C 153.13 13.14 142.35 10.25 131.31 10.16 M 76.40 89.41 C 73.86 91.59 70.92 95.15 73.17 98.55 C 103.80 98.49 134.42 98.53 165.05 98.53 C 168.91 98.89 171.78 95.45 172.77 92.07 C 173.80 88.65 175.51 84.87 173.58 81.45 C 151.06 81.12 128.53 81.40 106.01 81.30 C 95.71 80.99 84.49 82.46 76.40 89.41 M 69.31 119.12 C 66.89 120.55 67.53 123.61 67.38 125.96 C 67.53 132.41 67.11 138.91 67.89 145.33 C 69.36 153.05 72.24 161.31 79.07 165.87 C 85.85 170.16 94.06 171.80 102.01 171.66 C 118.67 171.64 135.32 171.69 151.98 171.63 C 158.67 171.75 165.45 169.78 170.94 165.94 C 177.37 161.08 179.91 152.72 180.27 144.97 C 180.61 137.98 180.43 130.96 180.44 123.96 C 180.65 121.35 179.00 118.19 176.03 118.41 C 165.69 118.16 155.34 118.43 145.00 118.29 C 142.08 118.34 138.64 117.96 136.45 120.35 C 134.20 122.97 133.40 126.57 133.10 129.93 C 132.73 131.76 134.37 133.53 136.20 133.45 C 142.48 133.71 148.77 133.31 155.05 133.53 C 157.52 133.41 160.38 135.26 160.25 137.96 C 160.39 141.50 160.20 145.10 159.29 148.53 C 158.25 151.65 154.97 153.47 151.80 153.51 C 140.55 154.09 129.27 153.65 118.00 153.79 C 111.88 153.69 105.72 154.11 99.64 153.23 C 94.35 152.49 89.44 148.45 88.58 143.03 C 86.94 136.19 87.68 129.14 87.43 122.20 C 87.36 119.55 84.46 117.98 82.03 118.33 C 77.84 118.57 73.20 117.50 69.31 119.12 M 11.25 131.29 C 13.22 170.02 37.20 206.68 71.60 224.45 C 86.00 232.39 102.29 236.50 118.63 237.66 C 118.64 235.57 118.66 233.48 118.68 231.39 C 97.12 230.21 75.91 222.43 58.93 209.04 C 44.60 198.09 33.31 183.35 26.07 166.86 C 20.86 155.73 18.67 143.50 17.42 131.36 C 15.36 131.35 13.31 131.32 11.25 131.29 M 231.12 131.36 C 230.38 135.46 230.38 139.66 229.55 143.76 C 226.98 157.89 221.37 171.45 213.50 183.45 C 195.52 210.99 164.19 229.18 131.38 231.28 C 131.41 233.41 131.43 235.54 131.45 237.67 C 143.93 236.64 156.39 234.09 167.93 229.14 C 207.21 213.42 236.46 173.86 237.84 131.31 C 235.60 131.32 233.35 131.34 231.12 131.36 Z" />
</g>
</svg>

<?xml version="1.0" encoding="utf-8"?>
<!-- Generator: Adobe Illustrator 26.0.3, SVG Export Plug-In . SVG Version: 6.00 Build 0)  -->
<svg version="1.1" id="Layer_1" xmlns="http://www.w3.org/2000/svg" xmlns:xlink="http://www.w3.org/1999/xlink" x="0px" y="0px"
	 viewBox="0 0 250 248" style="enable-background:new 0 0 250 248;" xml:space="preserve">
<style type="text/css">
	.st0{fill:#F0CE0E;}
	.st1{fill:#24262E;}
</style>
<g id="_x23_f0ce0eff">
	<path class="st0" d="M68.9,13.9c15.4-7.6,32.4-13,49.7-12.7c0.1,1.7,0.2,3.4,0.3,5.2c-18.2,1.2-36.4,6.2-52.2,15.3
		C42,35.7,22.6,59,13.7,86c-4,10.3-5.2,21.4-6.2,32.3c-2,0.1-4.1,0.1-6.1,0.2c-0.3-8.4,1.4-16.6,3.3-24.7
		C13.3,59.5,37.2,29.4,68.9,13.9z"/>
	<path class="st0" d="M131.5,1.2c3.4,0.1,6.8,0,10.1,0.5c14.6,2.3,28.8,7,41.7,14c26.6,14.4,47.4,39.1,57.4,67.7
		c4.1,11.3,5.9,23.2,6.8,35.1c-1.9-0.1-3.8-0.3-5.7-0.4c-0.5-19.9-7-39.5-17.4-56.4c-19.7-32-55.5-53.5-93.1-55.3
		C131.3,4.6,131.4,2.9,131.5,1.2z"/>
	<path class="st0" d="M99.1,12.7c6.4-1.6,13-2.7,19.6-2.6c-0.1,2.4-0.1,4.8-0.3,7.2C93.4,17.9,69.2,29,51,46
		C36,59.7,25.8,78.1,20.5,97.6c-1.9,6.8-2.3,13.9-3.2,20.8c-2,0.1-4,0.1-6.1,0.2c0.6-17.8,5.7-35.4,14.4-50.8
		c6.4-12,15.7-22.3,25.9-31.3C65.1,24.9,81.6,16.6,99.1,12.7z"/>
	<path class="st0" d="M131.3,10.2c11,0.1,21.8,3,32.3,6.3c25.2,9.2,46.9,27.6,60.1,50.9c9,15.5,13.6,33.2,14.8,50.9
		c-2.2,0.1-4.5,0.2-6.7,0.3c-1.4-4.7-1.1-9.6-2.2-14.4c-5.2-28.9-23.2-55-48-70.7c-15-9.3-32.2-15.5-50-16.2
		C131.5,14.9,131.4,12.5,131.3,10.2z"/>
	<path class="st0" d="M76.4,89.4c8.1-7,19.3-8.4,29.6-8.1c22.5,0.1,45-0.2,67.6,0.1c1.9,3.4,0.2,7.2-0.8,10.6
		c-1,3.4-3.9,6.8-7.7,6.5c-30.6,0-61.2,0-91.9,0C70.9,95.2,73.9,91.6,76.4,89.4z"/>
	<path class="st0" d="M241.3,137c0.5-6.3,0.4-12.7,0.5-19c0.8,4.2,0.7,8.5,0.7,12.8c1.6,0.4,3.1,0.8,4.7,1.3
		c-1.3,29.4-14.4,58.1-35.1,78.8c-21,21.5-50.3,35-80.3,36.5c0-2.1,0-4.2,0-6.3c27.2-1.6,53.9-13.1,73.6-32
		C225.3,190.4,238.2,164.3,241.3,137z"/>
	<path class="st0" d="M69.3,119.1c3.9-1.6,8.5-0.6,12.7-0.8c2.4-0.3,5.3,1.2,5.4,3.9c0.2,6.9-0.5,14,1.2,20.8
		c0.9,5.4,5.8,9.5,11.1,10.2c6.1,0.9,12.2,0.5,18.4,0.6c11.3-0.1,22.6,0.3,33.8-0.3c3.2,0,6.4-1.9,7.5-5c0.9-3.4,1.1-7,1-10.6
		c0.1-2.7-2.7-4.6-5.2-4.4c-6.3-0.2-12.6,0.2-18.9-0.1c-1.8,0.1-3.5-1.7-3.1-3.5c0.3-3.4,1.1-7,3.3-9.6c2.2-2.4,5.6-2,8.6-2.1
		c10.3,0.1,20.7-0.1,31,0.1c3-0.2,4.6,2.9,4.4,5.5c0,7,0.2,14-0.2,21c-0.4,7.8-2.9,16.1-9.3,21c-5.5,3.8-12.3,5.8-19,5.7
		c-16.7,0.1-33.3,0-50,0c-8,0.1-16.2-1.5-22.9-5.8c-6.8-4.6-9.7-12.8-11.2-20.5c-0.8-6.4-0.4-12.9-0.5-19.4
		C67.5,123.6,66.9,120.6,69.3,119.1z"/>
	<path class="st0" d="M1.3,131.4c2.1-0.1,4.2-0.1,6.4-0.2c1.5,20.2,7.9,40.1,19.1,57.1c14,21.5,35.3,38.2,59.5,46.5
		c10.5,3.8,21.5,5.4,32.5,6.4c-0.1,2.3-0.2,4.5-0.3,6.8h-5.6c-5.2-2-10.8-2.2-16.2-3.5c-14.6-3-28.3-9.3-40.7-17.5
		c-23.8-15.6-41.6-40-49.8-67.2C3.8,150.5,1.3,141.1,1.3,131.4z"/>
	<path class="st0" d="M11.2,131.3c2.1,0,4.1,0.1,6.2,0.1c1.2,12.1,3.4,24.4,8.6,35.5c7.2,16.5,18.5,31.2,32.9,42.2
		c17,13.4,38.2,21.2,59.8,22.4c0,2.1,0,4.2-0.1,6.3c-16.3-1.2-32.6-5.3-47-13.2C37.2,206.7,13.2,170,11.2,131.3z"/>
	<path class="st0" d="M231.1,131.4c2.2,0,4.5,0,6.7-0.1c-1.4,42.6-30.6,82.1-69.9,97.8c-11.5,4.9-24,7.5-36.5,8.5
		c0-2.1,0-4.3-0.1-6.4c32.8-2.1,64.1-20.3,82.1-47.8c7.9-12,13.5-25.6,16.1-39.7C230.4,139.7,230.4,135.5,231.1,131.4z"/>
</g>
<g id="_x23_24262eff">
	<path class="st1" d="M66.7,21.7c15.9-9.1,34-14.2,52.2-15.3c4.1-0.1,8.2-0.1,12.3,0c37.6,1.8,73.4,23.3,93.1,55.3
		c10.4,16.9,16.9,36.5,17.4,56.4c-0.1,6.3,0,12.7-0.5,19c-3.1,27.3-16,53.4-36.1,72.1c-19.7,18.9-46.3,30.4-73.6,32
		c-4.2,0.3-8.5,0.3-12.8,0.1c-11-1.1-22.1-2.7-32.5-6.4c-24.3-8.3-45.5-25.1-59.5-46.5c-11.2-16.9-17.6-36.8-19.1-57.1
		c-0.3-4.3-0.3-8.6-0.1-12.9c1-10.9,2.2-22,6.2-32.3C22.6,59,42,35.7,66.7,21.7 M99.1,12.7c-17.5,3.9-34,12.1-47.6,23.8
		c-10.2,9-19.5,19.2-25.9,31.3c-8.8,15.4-13.9,33-14.4,50.8c2-0.1,4-0.2,6.1-0.2c1-7,1.4-14,3.2-20.8C25.8,78.1,36,59.7,51,46
		c18.2-17,42.4-28.1,67.5-28.7c0.1-2.4,0.2-4.8,0.3-7.2C112.1,10.1,105.6,11.1,99.1,12.7 M131.3,10.2c0.1,2.4,0.2,4.8,0.3,7.1
		c17.7,0.8,34.9,7,50,16.2c24.7,15.7,42.8,41.8,48,70.7c1.2,4.7,0.8,9.7,2.2,14.4c2.2-0.1,4.5-0.2,6.7-0.3
		c-1.1-17.8-5.8-35.5-14.8-50.9c-13.2-23.4-34.9-41.7-60.1-50.9C153.1,13.1,142.4,10.2,131.3,10.2 M76.4,89.4
		c-2.5,2.2-5.5,5.7-3.2,9.1c30.6-0.1,61.2,0,91.9,0c3.9,0.4,6.7-3.1,7.7-6.5c1-3.4,2.7-7.2,0.8-10.6c-22.5-0.3-45.1,0-67.6-0.1
		C95.7,81,84.5,82.5,76.4,89.4 M69.3,119.1c-2.4,1.4-1.8,4.5-1.9,6.8c0.2,6.5-0.3,13,0.5,19.4c1.5,7.7,4.3,16,11.2,20.5
		c6.8,4.3,15,5.9,22.9,5.8c16.7,0,33.3,0,50,0c6.7,0.1,13.5-1.9,19-5.7c6.4-4.9,9-13.2,9.3-21c0.3-7,0.2-14,0.2-21
		c0.2-2.6-1.4-5.8-4.4-5.5c-10.3-0.2-20.7,0-31-0.1c-2.9,0-6.4-0.3-8.6,2.1c-2.2,2.6-3.1,6.2-3.3,9.6c-0.4,1.8,1.3,3.6,3.1,3.5
		c6.3,0.3,12.6-0.1,18.9,0.1c2.5-0.1,5.3,1.7,5.2,4.4c0.1,3.5-0.1,7.1-1,10.6c-1,3.1-4.3,4.9-7.5,5c-11.2,0.6-22.5,0.1-33.8,0.3
		c-6.1-0.1-12.3,0.3-18.4-0.6c-5.3-0.7-10.2-4.8-11.1-10.2c-1.6-6.8-0.9-13.9-1.2-20.8c-0.1-2.6-3-4.2-5.4-3.9
		C77.8,118.6,73.2,117.5,69.3,119.1 M11.2,131.3c2,38.7,26,75.4,60.3,93.2c14.4,7.9,30.7,12.1,47,13.2c0-2.1,0-4.2,0.1-6.3
		c-21.6-1.2-42.8-9-59.8-22.4c-14.3-10.9-25.6-25.7-32.9-42.2c-5.2-11.1-7.4-23.4-8.6-35.5C15.4,131.4,13.3,131.3,11.2,131.3
		 M231.1,131.4c-0.7,4.1-0.7,8.3-1.6,12.4c-2.6,14.1-8.2,27.7-16.1,39.7c-18,27.5-49.3,45.7-82.1,47.8c0,2.1,0,4.3,0.1,6.4
		c12.5-1,24.9-3.6,36.5-8.5c39.3-15.7,68.5-55.3,69.9-97.8C235.6,131.3,233.4,131.3,231.1,131.4z"/>
</g>
</svg>
